X:1
T:Triumph, 87.87.87
T:Triumph, 87.87.87
T:Henry John Gauntlett (1805-1876)
T:Public Domain Courtesy of the Cyber Hymnal™
C:Henry John Gauntlett (1805-1876)
Z:Public Domain
Z:Courtesy of the Cyber Hymnal™
%%score ( 1 2 ) ( 3 4 )
L:1/8
Q:1/4=110
M:4/4
K:C
V:1 treble 
V:2 treble 
V:3 bass 
V:4 bass 
V:1
 C2 E2 G3 G | G2 A2 G2 E2 | [EG]2 G2 [^Fc]2 [GB]2 | [GA]2 [^FA]2 G4 x | E2 G2 c3 c | c2 B2 d2 c2 | %6
 [Ac]2 [FA]2 G2 [Ge]2 | [Gd]3 [Fd] [Ec]4 | [CE]2 [DG]2 [EA]2 [D^F]2 | [DG]2 [Gc]2 [Fc]2 [FB]2 | %10
 [Ec]2 [Ff]2 [Gf]2 [Ge]2 | d2 z [Ec]4 x |] %12
V:2
 C2 E2 G3 G | G2 A2 G2 E2 | x2 G2 x4 | x4 G4 x | E2 G2 c3 c | c2 B2 d2 c2 | x4 G2 x2 | x8 | x8 | %9
 x8 | x8 | G3 (d2 F) x2 |] %12
V:3
 C,2 E,2 G,3 G, | G,2 A,2 G,2 E,2 | C2 [B,D]2 [A,C]2 [G,D]2 | D3 z A, [G,B,]4 | E,2 G,2 C3 C | %5
 C2 B,2 D2 C2 | [F,C]2 [F,C]2 [E,C]2 [C,C]2 | C2 z [C,C]4 x | [C,G,]2 [B,,B,]2 [A,,C]2 [D,A,]2 | %9
 [B,,E]2 [E,C]2 [D,D]2 [G,D]2 | [A,C]2 [A,C]2 [B,D]2 C2 | [G,C]2 [G,B,]2 [C,C]4 |] %12
V:4
 C,2 E,2 G,3 G, | G,2 A,2 G,2 E,2 | C2 x6 | D,2 D,2 x5 | E,2 G,2 C3 C | C2 B,2 D2 C2 | x8 | %7
 G,3 (B,2 G,) x2 | x8 | x8 | x6 C2 | x8 |] %12

